app/images/qr-blue.svg

<svg width="24" height="24" viewBox="0 0 24 24" fill="none" xmlns="http://www.w3.org/2000/svg">
  <path fill-rule="evenodd" clip-rule="evenodd" d="M16.32 8H8.63997L8.63997 16H16.32V8ZM8.63997 6C7.57958 6 6.71997 6.89543 6.71997 8V16C6.71997 17.1046 7.57958 18 8.63997 18H16.32C17.3804 18 18.24 17.1046 18.24 16V8C18.24 6.89543 17.3804 6 16.32 6H8.63997Z" fill="#037DD6"/>
  <path fill-rule="evenodd" clip-rule="evenodd" d="M16.32 1C16.32 0.447715 16.7498 0 17.28 0H21.12C22.7106 0 24 1.34315 24 3V7C24 7.55228 23.5702 8 23.04 8C22.5098 8 22.08 7.55228 22.08 7V3C22.08 2.44772 21.6502 2 21.12 2H17.28C16.7498 2 16.32 1.55228 16.32 1Z" fill="#037DD6"/>
  <path fill-rule="evenodd" clip-rule="evenodd" d="M23.04 16C23.5702 16 24 16.4477 24 17L24 21C24 22.6569 22.7106 24 21.12 24L17.28 24C16.7498 24 16.32 23.5523 16.32 23C16.32 22.4477 16.7498 22 17.28 22L21.12 22C21.6502 22 22.08 21.5523 22.08 21L22.08 17C22.08 16.4477 22.5098 16 23.04 16Z" fill="#037DD6"/>
  <path fill-rule="evenodd" clip-rule="evenodd" d="M7.67999 23C7.67999 23.5523 7.25019 24 6.71999 24L2.87999 24C1.28941 24 -6.563e-06 22.6569 -6.42394e-06 21L-6.08824e-06 17C-6.04189e-06 16.4477 0.429801 16 0.959994 16C1.49019 16 1.91999 16.4477 1.91999 17L1.91999 21C1.91999 21.5523 2.3498 22 2.87999 22L6.71999 22C7.25019 22 7.67999 22.4477 7.67999 23Z" fill="#037DD6"/>
  <path fill-rule="evenodd" clip-rule="evenodd" d="M0.96 8C0.429807 8 5.87108e-08 7.55228 1.31134e-07 7L6.55671e-07 3C8.72941e-07 1.34315 1.28942 1.69087e-07 2.88 3.77666e-07L6.72 8.81222e-07C7.25019 9.50748e-07 7.68 0.447716 7.68 1C7.68 1.55229 7.25019 2 6.72 2L2.88 2C2.34981 2 1.92 2.44772 1.92 3L1.92 7C1.92 7.55229 1.49019 8 0.96 8Z" fill="#037DD6"/>
</svg>

<svg fill="none" height="24" width="24" xmlns="http://www.w3.org/2000/svg">
    <g clip-rule="evenodd" fill="#037dd6" fill-rule="evenodd">
        <path d="M16.32 8H8.64v8h7.68zM8.64 6c-1.06 0-1.92.895-1.92 2v8c0 1.105.86 2 1.92 2h7.68c1.06 0 1.92-.895 1.92-2V8c0-1.105-.86-2-1.92-2zM16.32 1c0-.552.43-1 .96-1h3.84C22.71 0 24 1.343 24 3v4c0 .552-.43 1-.96 1s-.96-.448-.96-1V3c0-.552-.43-1-.96-1h-3.84c-.53 0-.96-.448-.96-1zM23.04 16c.53 0 .96.448.96 1v4c0 1.657-1.29 3-2.88 3h-3.84c-.53 0-.96-.448-.96-1s.43-1 .96-1h3.84c.53 0 .96-.448.96-1v-4c0-.552.43-1 .96-1zM7.68 23c0 .552-.43 1-.96 1H2.88C1.29 24 0 22.657 0 21v-4c0-.552.43-1 .96-1s.96.448.96 1v4c0 .552.43 1 .96 1h3.84c.53 0 .96.448.96 1zM.96 8C.43 8 0 7.552 0 7V3c0-1.657 1.29-3 2.88-3h3.84c.53 0 .96.448.96 1s-.43 1-.96 1H2.88c-.53 0-.96.448-.96 1v4c0 .552-.43 1-.96 1z"/>
    </g>
</svg>
